Obsidian-SemiLight/actions/16s/insert-more-mark.svg

<svg viewBox="0 0 16 16" xmlns="http://www.w3.org/2000/svg"><path d="m2 2v1h12v-1zm0 2v1h7v-1zm0 6v1h12v-1zm0 2v1h8v-1zm10 1v1h2v-1z" fill="#4d4d4d"/><path d="m2 7h12v1h-12z" fill="#3daee9"/></svg>

<svg xmlns="http://www.w3.org/2000/svg" viewBox="0 0 16 16">
  <defs id="defs3051">
    <style type="text/css" id="current-color-scheme">
      .ColorScheme-Text {
        color:#4d4d4d;
      }
      .ColorScheme-Highlight {
        color:#3daee9;
      }
      </style>
  </defs>
  <path 
        style="fill:currentColor;fill-opacity:1;stroke:none"
        d="M 2,2 2,3 14,3 14,2 2,2 Z M 2,4 2,5 9,5 9,4 2,4 Z m 0,6 0,1 12,0 0,-1 -12,0 z m 0,2 0,1 8,0 0,-1 -8,0 z m 10,1 0,1 2,0 0,-1 -2,0 z"
        class="ColorScheme-Text"
        />
  <path 
        style="fill:currentColor;fill-opacity:1;stroke:none"
        d="M 2,7 14,7 14,8 2,8 Z"
        class="ColorScheme-Highlight"
        />
</svg>
